X: 1
T: The Deuk's Dang oer My Daddy
R: jig
C: Trad
L: 1/8
M: 6/8
K: D
fe \
| "D"d2 A F2 D | "Em"EDE "A"BAB | "D"d2 A "A"F2 E | "D"FDD Dfe \
| "D"d2 A F2 D | "Em"EDE "A"BAB | "D"d2 A "A"F2 E | "D"FDD D2 f |]
[|"D"dcd "Bm"Bcd | "Em"efd "A"cBA | "G"dcd "A"ede | "D"fdd def \
| "G"gfg Bcd | "E7"efd "A"cBA | "D"dcd "A"ede | "D"fdd d |]
